X:1
T: Mrs. Young of Banff's Strathspey
C:William Marshall
R:Strathspey
Q: 128
K:C
M:4/4
L:1/16
|:E2|Cc3 c3E G4 G3E|Cc3 c3E D4 D3E|Cc3 c3E c3d eG3|edcA c3E D4 D2E2|
Cc3 c3E G4 G3E|Cc3 c3E D4 D3E|Cc3 c3E c3d eG3|edcA c3E D4 D2ef|
g3c agfe g3e agfe|c3g agfe d4 d2ef|g3c agfe cg3 eg3|fefg agfe d4 d2ef|
g3c agfe g3e agfe|c3g agfe d4 d2ef|ge3 fd3 ec3 e3d|cA3 c3E D4 D2:|
